X:2100
T:Breen's Reel
R:Reel
S:Seamus Egan
H:
N:
D:Solo Album #1 
Z:Adrian Scahill
M:4/4
L:1/8
K:G
e3d cBAG|EAA2 E2 (3Bcd|egdB cBAG|EGG2 EG(3Bcd|\
egdB cBAG|EAA2 E2 (3Bcd|egdB cBAG|EGGF G2 (3Bcd||
e3g ed (3Bcd|eaa2 egg2|e2ge edBd|d2ef g2fg|\
e3g ed (3Bcd|eaa2 egg2|e2(3gfg edBe|d2ef g2fg||


